X: 8752
T: Cucanandy
R: slip jig
M: 9/8
K: Gmajor
B3 B2A G2A|B2d d2B d2e|B3 B2A G2A|B2e efd e2f|
B3 B2A G2A|B2d d2B d2e|e2B B2A G2A|B2e efd e3||
e2f g2f g2A|B2d d2B d3|e2f gfe dBA|B2e efd ~e3|
e2f g2f g2A|B2d d2B d3|e2B B2A G2A|B2e efd e3||

